src/assets/openshipai-logo-2.svg

<svg width="721" height="122" fill="none" xmlns="http://www.w3.org/2000/svg"><path d="M8.274 90.206C1.53 78.676-1.571 64.433.779 51.284A56.163 56.163 0 0157.085 5.01c13.355.243 28.549 7.6 38.554 16.45l-12.014 8.548a41.595 41.595 0 00-63.463 52.157L8.274 90.206z" fill="url(#paint0_linear_782_1398)"/><path d="M105.497 34.524c5.157 11.31 7.897 27.238 5.035 39.334a55.968 55.968 0 01-53.454 43.073c-19.477 0-28.083-6.01-38.038-13.454l12.264-9.394a41.347 41.347 0 0062.382-50.268l11.811-9.291z" fill="url(#paint1_linear_782_1398)"/><path d="M217.568 94.536c-5.056 0-9.568-1.12-13.536-3.36-3.968-2.304-7.072-5.408-9.312-9.312-2.176-3.968-3.264-8.416-3.264-13.344 0-4.864 1.088-9.28 3.264-13.248 2.24-3.968 5.344-7.072 9.312-9.312 3.968-2.304 8.48-3.456 13.536-3.456 4.992 0 9.472 1.152 13.44 3.456 3.968 2.24 7.04 5.344 9.216 9.312 2.24 3.968 3.36 8.384 3.36 13.248 0 4.928-1.12 9.376-3.36 13.344-2.176 3.904-5.248 7.008-9.216 9.312-3.968 2.24-8.448 3.36-13.44 3.36zm0-11.616c2.432 0 4.672-.576 6.72-1.728 2.048-1.152 3.68-2.816 4.896-4.992 1.216-2.176 1.824-4.736 1.824-7.68 0-2.88-.608-5.408-1.824-7.584-1.216-2.176-2.848-3.84-4.896-4.992-2.048-1.152-4.288-1.728-6.72-1.728-2.432 0-4.672.576-6.72 1.728-2.048 1.152-3.712 2.816-4.992 4.992-1.216 2.176-1.824 4.704-1.824 7.584s.608 5.44 1.824 7.68c1.28 2.176 2.944 3.84 4.992 4.992 2.048 1.152 4.288 1.728 6.72 1.728zm34.786-38.88h11.808v5.952h.768c1.344-2.112 3.296-3.872 5.856-5.28 2.56-1.472 5.504-2.208 8.832-2.208 4.416 0 8.416 1.12 12 3.36 3.648 2.176 6.496 5.248 8.544 9.216 2.048 3.968 3.072 8.448 3.072 13.44 0 5.056-1.024 9.568-3.072 13.536-2.048 3.904-4.896 6.976-8.544 9.216-3.584 2.176-7.584 3.264-12 3.264-3.328 0-6.304-.704-8.928-2.112-2.56-1.408-4.48-3.168-5.76-5.28h-.768l.768 6.912v19.68h-12.576V44.04zm25.056 38.88a12.75 12.75 0 006.624-1.824c2.048-1.216 3.68-2.912 4.896-5.088 1.216-2.176 1.824-4.672 1.824-7.488 0-2.816-.608-5.312-1.824-7.488-1.216-2.176-2.848-3.84-4.896-4.992a12.75 12.75 0 00-6.624-1.824c-2.304 0-4.48.608-6.528 1.824-2.048 1.152-3.68 2.816-4.896 4.992-1.216 2.176-1.824 4.672-1.824 7.488 0 2.816.608 5.312 1.824 7.488 1.216 2.176 2.848 3.872 4.896 5.088 2.048 1.216 4.224 1.824 6.528 1.824zm58.46 11.616c-4.864 0-9.248-1.12-13.152-3.36-3.904-2.24-6.976-5.312-9.216-9.216-2.176-3.968-3.264-8.416-3.264-13.344 0-4.672 1.088-8.992 3.264-12.96 2.176-4.032 5.184-7.232 9.024-9.6 3.84-2.368 8.128-3.552 12.864-3.552 5.056 0 9.408 1.088 13.056 3.264 3.648 2.176 6.4 5.152 8.256 8.928 1.92 3.776 2.88 7.968 2.88 12.576 0 1.472-.096 2.88-.288 4.224h-36.768c.64 3.904 2.176 6.88 4.608 8.928 2.496 1.984 5.472 2.976 8.928 2.976 2.88 0 5.344-.608 7.392-1.824 2.112-1.28 3.776-2.976 4.992-5.088l10.176 4.992c-4.992 8.704-12.576 13.056-22.752 13.056zm11.616-31.968c-.128-1.536-.704-3.04-1.728-4.512-.96-1.536-2.336-2.784-4.128-3.744-1.728-1.024-3.776-1.536-6.144-1.536-3.008 0-5.6.896-7.776 2.688-2.112 1.728-3.648 4.096-4.608 7.104h24.384zm21.783-18.528h11.808v6.144h.768c1.472-2.368 3.552-4.224 6.24-5.568 2.688-1.408 5.6-2.112 8.736-2.112 5.888 0 10.368 1.792 13.44 5.376 3.072 3.584 4.608 8.48 4.608 14.688V93h-12.576V64.104c0-3.136-.8-5.568-2.4-7.296-1.6-1.728-3.84-2.592-6.72-2.592-3.392 0-6.144 1.312-8.256 3.936-2.048 2.624-3.072 5.92-3.072 9.888V93h-12.576V44.04zm75.624 50.496c-5.952 0-10.784-1.216-14.496-3.648-3.648-2.432-6.208-5.6-7.68-9.504l11.232-4.896c1.024 2.304 2.464 4.064 4.32 5.28 1.92 1.152 4.128 1.728 6.624 1.728 2.304 0 4.224-.352 5.76-1.056 1.536-.768 2.304-1.984 2.304-3.648 0-1.6-.704-2.784-2.112-3.552-1.408-.832-3.52-1.568-6.336-2.208l-5.76-1.248c-3.968-.96-7.264-2.688-9.888-5.184-2.624-2.56-3.936-5.728-3.936-9.504 0-2.816.832-5.344 2.496-7.584 1.728-2.24 4.032-3.968 6.912-5.184 2.944-1.216 6.176-1.824 9.696-1.824 10.112 0 16.864 3.552 20.256 10.656l-10.752 4.704c-1.92-3.456-4.992-5.184-9.216-5.184-2.176 0-3.904.416-5.184 1.248-1.28.768-1.92 1.76-1.92 2.976 0 2.304 2.176 4.032 6.528 5.184l7.2 1.728c4.864 1.216 8.512 3.072 10.944 5.568 2.496 2.496 3.744 5.568 3.744 9.216 0 3.136-.928 5.92-2.784 8.352-1.792 2.368-4.288 4.224-7.488 5.568-3.136 1.344-6.624 2.016-10.464 2.016zm29.845-70.272h12.576V41.64l-.768 8.544h.768c1.408-2.304 3.456-4.16 6.144-5.568 2.688-1.408 5.6-2.112 8.736-2.112 5.952 0 10.496 1.792 13.632 5.376 3.2 3.52 4.8 8.416 4.8 14.688V93H508.05V64.104c0-3.136-.864-5.568-2.592-7.296-1.664-1.728-3.904-2.592-6.72-2.592-3.328 0-6.08 1.344-8.256 4.032-2.112 2.688-3.168 5.984-3.168 9.888V93h-12.576V24.264zm64.854 14.4c-2.24 0-4.16-.8-5.76-2.4-1.6-1.6-2.4-3.52-2.4-5.76 0-2.24.8-4.128 2.4-5.664 1.6-1.6 3.52-2.4 5.76-2.4 2.24 0 4.128.8 5.664 2.4 1.6 1.536 2.4 3.424 2.4 5.664 0 2.24-.8 4.16-2.4 5.76-1.536 1.6-3.424 2.4-5.664 2.4zm-6.336 5.376h12.576V93h-12.576V44.04zm25.379 0h11.808v5.952h.768c1.344-2.112 3.296-3.872 5.856-5.28 2.56-1.472 5.504-2.208 8.832-2.208 4.416 0 8.416 1.12 12 3.36 3.648 2.176 6.496 5.248 8.544 9.216 2.048 3.968 3.072 8.448 3.072 13.44 0 5.056-1.024 9.568-3.072 13.536-2.048 3.904-4.896 6.976-8.544 9.216-3.584 2.176-7.584 3.264-12 3.264-3.328 0-6.304-.704-8.928-2.112-2.56-1.408-4.48-3.168-5.76-5.28h-.768l.768 6.912v19.68h-12.576V44.04zm25.056 38.88a12.75 12.75 0 006.624-1.824c2.048-1.216 3.68-2.912 4.896-5.088 1.216-2.176 1.824-4.672 1.824-7.488 0-2.816-.608-5.312-1.824-7.488-1.216-2.176-2.848-3.84-4.896-4.992a12.75 12.75 0 00-6.624-1.824c-2.304 0-4.48.608-6.528 1.824-2.048 1.152-3.68 2.816-4.896 4.992-1.216 2.176-1.824 4.672-1.824 7.488 0 2.816.608 5.312 1.824 7.488 1.216 2.176 2.848 3.872 4.896 5.088 2.048 1.216 4.224 1.824 6.528 1.824zm43.1 10.656c-2.304 0-4.288-.8-5.952-2.4-1.6-1.664-2.4-3.648-2.4-5.952s.8-4.256 2.4-5.856c1.664-1.6 3.648-2.4 5.952-2.4s4.256.8 5.856 2.4c1.664 1.6 2.496 3.552 2.496 5.856s-.832 4.288-2.496 5.952c-1.6 1.6-3.552 2.4-5.856 2.4zm34.861.96c-5.184 0-9.44-1.504-12.768-4.512-3.328-3.072-4.992-7.072-4.992-12 0-3.264.864-6.144 2.592-8.64 1.728-2.496 4.096-4.416 7.104-5.76 3.008-1.344 6.336-2.016 9.984-2.016 5.056 0 9.376.736 12.96 2.208v-2.112c0-2.688-1.024-4.864-3.072-6.528-1.984-1.664-4.672-2.496-8.064-2.496-2.304 0-4.544.544-6.72 1.632-2.112 1.024-3.872 2.4-5.28 4.128l-8.064-6.336c2.368-3.072 5.344-5.44 8.928-7.104 3.584-1.664 7.488-2.496 11.712-2.496 7.488 0 13.184 1.728 17.088 5.184 3.904 3.456 5.856 8.512 5.856 15.168V93h-12.384v-4.992h-.768c-1.472 1.92-3.424 3.488-5.856 4.704-2.368 1.216-5.12 1.824-8.256 1.824zm2.976-9.792c3.648 0 6.528-1.152 8.64-3.456 2.176-2.368 3.264-5.12 3.264-8.256a23.841 23.841 0 00-10.272-2.304c-6.528 0-9.792 2.432-9.792 7.296 0 1.984.704 3.616 2.112 4.896 1.408 1.216 3.424 1.824 6.048 1.824zm42.964-46.08c-2.24 0-4.16-.8-5.76-2.4-1.6-1.6-2.4-3.52-2.4-5.76 0-2.24.8-4.128 2.4-5.664 1.6-1.6 3.52-2.4 5.76-2.4 2.24 0 4.128.8 5.664 2.4 1.6 1.536 2.4 3.424 2.4 5.664 0 2.24-.8 4.16-2.4 5.76-1.536 1.6-3.424 2.4-5.664 2.4zm-6.336 5.376h12.576V93h-12.576V44.04z" fill="url(#paint2_linear_782_1398)"/><defs><linearGradient id="paint0_linear_782_1398" x1="47.819" y1="5" x2="47.819" y2="90.206" gradientUnits="userSpaceOnUse"><stop stop-color="#024EC9"/><stop offset="1" stop-color="#0061FF"/></linearGradient><linearGradient id="paint1_linear_782_1398" x1="65.365" y1="34.524" x2="65.365" y2="116.931" gradientUnits="userSpaceOnUse"><stop stop-color="#024EC9"/><stop offset="1" stop-color="#0061FF"/></linearGradient><linearGradient id="paint2_linear_782_1398" x1="188" y1="61" x2="721" y2="61" gradientUnits="userSpaceOnUse"><stop stop-color="#024EC9"/><stop offset="1" stop-color="#0061FF"/></linearGradient></defs></svg>

<svg width="721" height="122" viewBox="0 0 721 122" fill="none" xmlns="http://www.w3.org/2000/svg">
<path d="M8.27384 90.2058C1.52987 78.6761 -1.57061 64.4334 0.778741 51.2845C3.1281 38.1355 10.0869 26.2543 20.4062 17.7733C30.7255 9.29239 43.7297 4.76695 57.0847 5.00925C70.4397 5.25155 85.634 12.6089 95.6389 21.4586L83.6245 30.0068C76.2147 23.4525 66.7115 19.7537 56.8205 19.5743C46.9294 19.3948 37.2983 22.7465 29.6556 29.0276C22.0129 35.3088 16.859 44.1083 15.1191 53.8467C13.3791 63.5851 15.1669 73.6248 20.1616 82.1639L8.27384 90.2058Z" fill="url(#paint0_linear_782_1398)"/>
<path d="M105.497 34.5237C110.654 45.8333 113.394 61.762 110.532 73.8579C107.67 85.9538 100.863 96.7529 91.1841 104.552C81.5054 112.351 69.5059 116.706 57.078 116.931C37.6012 116.931 28.995 110.921 19.0405 103.477L31.304 94.0828C38.6577 99.5818 47.6326 102.477 56.8135 102.31C65.9944 102.144 74.8588 98.9269 82.0088 93.1655C89.1587 87.404 94.1874 79.4264 96.3018 70.4908C98.4161 61.5551 97.4958 52.1699 93.6861 43.8151L105.497 34.5237Z" fill="url(#paint1_linear_782_1398)"/>
<path d="M217.568 94.536C212.512 94.536 208 93.416 204.032 91.176C200.064 88.872 196.96 85.768 194.72 81.864C192.544 77.896 191.456 73.448 191.456 68.52C191.456 63.656 192.544 59.24 194.72 55.272C196.96 51.304 200.064 48.2 204.032 45.96C208 43.656 212.512 42.504 217.568 42.504C222.56 42.504 227.04 43.656 231.008 45.96C234.976 48.2 238.048 51.304 240.224 55.272C242.464 59.24 243.584 63.656 243.584 68.52C243.584 73.448 242.464 77.896 240.224 81.864C238.048 85.768 234.976 88.872 231.008 91.176C227.04 93.416 222.56 94.536 217.568 94.536ZM217.568 82.92C220 82.92 222.24 82.344 224.288 81.192C226.336 80.04 227.968 78.376 229.184 76.2C230.4 74.024 231.008 71.464 231.008 68.52C231.008 65.64 230.4 63.112 229.184 60.936C227.968 58.76 226.336 57.096 224.288 55.944C222.24 54.792 220 54.216 217.568 54.216C215.136 54.216 212.896 54.792 210.848 55.944C208.8 57.096 207.136 58.76 205.856 60.936C204.64 63.112 204.032 65.64 204.032 68.52C204.032 71.4 204.64 73.96 205.856 76.2C207.136 78.376 208.8 80.04 210.848 81.192C212.896 82.344 215.136 82.92 217.568 82.92ZM252.354 44.04H264.162V49.992H264.93C266.274 47.88 268.226 46.12 270.786 44.712C273.346 43.24 276.29 42.504 279.618 42.504C284.034 42.504 288.034 43.624 291.618 45.864C295.266 48.04 298.114 51.112 300.162 55.08C302.21 59.048 303.234 63.528 303.234 68.52C303.234 73.576 302.21 78.088 300.162 82.056C298.114 85.96 295.266 89.032 291.618 91.272C288.034 93.448 284.034 94.536 279.618 94.536C276.29 94.536 273.314 93.832 270.69 92.424C268.13 91.016 266.21 89.256 264.93 87.144H264.162L264.93 94.056V113.736H252.354V44.04ZM277.41 82.92C279.778 82.92 281.986 82.312 284.034 81.096C286.082 79.88 287.714 78.184 288.93 76.008C290.146 73.832 290.754 71.336 290.754 68.52C290.754 65.704 290.146 63.208 288.93 61.032C287.714 58.856 286.082 57.192 284.034 56.04C281.986 54.824 279.778 54.216 277.41 54.216C275.106 54.216 272.93 54.824 270.882 56.04C268.834 57.192 267.202 58.856 265.986 61.032C264.77 63.208 264.162 65.704 264.162 68.52C264.162 71.336 264.77 73.832 265.986 76.008C267.202 78.184 268.834 79.88 270.882 81.096C272.93 82.312 275.106 82.92 277.41 82.92ZM335.87 94.536C331.006 94.536 326.622 93.416 322.718 91.176C318.814 88.936 315.742 85.864 313.502 81.96C311.326 77.992 310.238 73.544 310.238 68.616C310.238 63.944 311.326 59.624 313.502 55.656C315.678 51.624 318.686 48.424 322.526 46.056C326.366 43.688 330.654 42.504 335.39 42.504C340.446 42.504 344.798 43.592 348.446 45.768C352.094 47.944 354.846 50.92 356.702 54.696C358.622 58.472 359.582 62.664 359.582 67.272C359.582 68.744 359.486 70.152 359.294 71.496H322.526C323.166 75.4 324.702 78.376 327.134 80.424C329.63 82.408 332.606 83.4 336.062 83.4C338.942 83.4 341.406 82.792 343.454 81.576C345.566 80.296 347.23 78.6 348.446 76.488L358.622 81.48C353.63 90.184 346.046 94.536 335.87 94.536ZM347.486 62.568C347.358 61.032 346.782 59.528 345.758 58.056C344.798 56.52 343.422 55.272 341.63 54.312C339.902 53.288 337.854 52.776 335.486 52.776C332.478 52.776 329.886 53.672 327.71 55.464C325.598 57.192 324.062 59.56 323.102 62.568H347.486ZM369.269 44.04H381.077V50.184H381.845C383.317 47.816 385.397 45.96 388.085 44.616C390.773 43.208 393.685 42.504 396.821 42.504C402.709 42.504 407.189 44.296 410.261 47.88C413.333 51.464 414.869 56.36 414.869 62.568V93H402.293V64.104C402.293 60.968 401.493 58.536 399.893 56.808C398.293 55.08 396.053 54.216 393.173 54.216C389.781 54.216 387.029 55.528 384.917 58.152C382.869 60.776 381.845 64.072 381.845 68.04V93H369.269V44.04ZM444.893 94.536C438.941 94.536 434.109 93.32 430.397 90.888C426.749 88.456 424.189 85.288 422.717 81.384L433.949 76.488C434.973 78.792 436.413 80.552 438.269 81.768C440.189 82.92 442.397 83.496 444.893 83.496C447.197 83.496 449.117 83.144 450.653 82.44C452.189 81.672 452.957 80.456 452.957 78.792C452.957 77.192 452.253 76.008 450.845 75.24C449.437 74.408 447.325 73.672 444.509 73.032L438.749 71.784C434.781 70.824 431.485 69.096 428.861 66.6C426.237 64.04 424.925 60.872 424.925 57.096C424.925 54.28 425.757 51.752 427.421 49.512C429.149 47.272 431.453 45.544 434.333 44.328C437.277 43.112 440.509 42.504 444.029 42.504C454.141 42.504 460.893 46.056 464.285 53.16L453.533 57.864C451.613 54.408 448.541 52.68 444.317 52.68C442.141 52.68 440.413 53.096 439.133 53.928C437.853 54.696 437.213 55.688 437.213 56.904C437.213 59.208 439.389 60.936 443.741 62.088L450.941 63.816C455.805 65.032 459.453 66.888 461.885 69.384C464.381 71.88 465.629 74.952 465.629 78.6C465.629 81.736 464.701 84.52 462.845 86.952C461.053 89.32 458.557 91.176 455.357 92.52C452.221 93.864 448.733 94.536 444.893 94.536ZM474.738 24.264H487.314V41.64L486.546 50.184H487.314C488.722 47.88 490.77 46.024 493.458 44.616C496.146 43.208 499.058 42.504 502.194 42.504C508.146 42.504 512.69 44.296 515.826 47.88C519.026 51.4 520.626 56.296 520.626 62.568V93H508.05V64.104C508.05 60.968 507.186 58.536 505.458 56.808C503.794 55.08 501.554 54.216 498.738 54.216C495.41 54.216 492.658 55.56 490.482 58.248C488.37 60.936 487.314 64.232 487.314 68.136V93H474.738V24.264ZM539.592 38.664C537.352 38.664 535.432 37.864 533.832 36.264C532.232 34.664 531.432 32.744 531.432 30.504C531.432 28.264 532.232 26.376 533.832 24.84C535.432 23.24 537.352 22.44 539.592 22.44C541.832 22.44 543.72 23.24 545.256 24.84C546.856 26.376 547.656 28.264 547.656 30.504C547.656 32.744 546.856 34.664 545.256 36.264C543.72 37.864 541.832 38.664 539.592 38.664ZM533.256 44.04H545.832V93H533.256V44.04ZM558.635 44.04H570.443V49.992H571.211C572.555 47.88 574.507 46.12 577.067 44.712C579.627 43.24 582.571 42.504 585.899 42.504C590.315 42.504 594.315 43.624 597.899 45.864C601.547 48.04 604.395 51.112 606.443 55.08C608.491 59.048 609.515 63.528 609.515 68.52C609.515 73.576 608.491 78.088 606.443 82.056C604.395 85.96 601.547 89.032 597.899 91.272C594.315 93.448 590.315 94.536 585.899 94.536C582.571 94.536 579.595 93.832 576.971 92.424C574.411 91.016 572.491 89.256 571.211 87.144H570.443L571.211 94.056V113.736H558.635V44.04ZM583.691 82.92C586.059 82.92 588.267 82.312 590.315 81.096C592.363 79.88 593.995 78.184 595.211 76.008C596.427 73.832 597.035 71.336 597.035 68.52C597.035 65.704 596.427 63.208 595.211 61.032C593.995 58.856 592.363 57.192 590.315 56.04C588.267 54.824 586.059 54.216 583.691 54.216C581.387 54.216 579.211 54.824 577.163 56.04C575.115 57.192 573.483 58.856 572.267 61.032C571.051 63.208 570.443 65.704 570.443 68.52C570.443 71.336 571.051 73.832 572.267 76.008C573.483 78.184 575.115 79.88 577.163 81.096C579.211 82.312 581.387 82.92 583.691 82.92ZM626.791 93.576C624.487 93.576 622.503 92.776 620.839 91.176C619.239 89.512 618.439 87.528 618.439 85.224C618.439 82.92 619.239 80.968 620.839 79.368C622.503 77.768 624.487 76.968 626.791 76.968C629.095 76.968 631.047 77.768 632.647 79.368C634.311 80.968 635.143 82.92 635.143 85.224C635.143 87.528 634.311 89.512 632.647 91.176C631.047 92.776 629.095 93.576 626.791 93.576ZM661.652 94.536C656.468 94.536 652.212 93.032 648.884 90.024C645.556 86.952 643.892 82.952 643.892 78.024C643.892 74.76 644.756 71.88 646.484 69.384C648.212 66.888 650.58 64.968 653.588 63.624C656.596 62.28 659.924 61.608 663.572 61.608C668.628 61.608 672.948 62.344 676.532 63.816V61.704C676.532 59.016 675.508 56.84 673.46 55.176C671.476 53.512 668.788 52.68 665.396 52.68C663.092 52.68 660.852 53.224 658.676 54.312C656.564 55.336 654.804 56.712 653.396 58.44L645.332 52.104C647.7 49.032 650.676 46.664 654.26 45C657.844 43.336 661.748 42.504 665.972 42.504C673.46 42.504 679.156 44.232 683.06 47.688C686.964 51.144 688.916 56.2 688.916 62.856V93H676.532V88.008H675.764C674.292 89.928 672.34 91.496 669.908 92.712C667.54 93.928 664.788 94.536 661.652 94.536ZM664.628 84.744C668.276 84.744 671.156 83.592 673.268 81.288C675.444 78.92 676.532 76.168 676.532 73.032C673.268 71.496 669.844 70.728 666.26 70.728C659.732 70.728 656.468 73.16 656.468 78.024C656.468 80.008 657.172 81.64 658.58 82.92C659.988 84.136 662.004 84.744 664.628 84.744ZM707.592 38.664C705.352 38.664 703.432 37.864 701.832 36.264C700.232 34.664 699.432 32.744 699.432 30.504C699.432 28.264 700.232 26.376 701.832 24.84C703.432 23.24 705.352 22.44 707.592 22.44C709.832 22.44 711.72 23.24 713.256 24.84C714.856 26.376 715.656 28.264 715.656 30.504C715.656 32.744 714.856 34.664 713.256 36.264C711.72 37.864 709.832 38.664 707.592 38.664ZM701.256 44.04H713.832V93H701.256V44.04Z" fill="url(#paint2_linear_782_1398)"/>
<defs>
<linearGradient id="paint0_linear_782_1398" x1="47.8195" y1="5" x2="47.8195" y2="90.2058" gradientUnits="userSpaceOnUse">
<stop stop-color="#024EC9"/>
<stop offset="1" stop-color="#0061FF"/>
</linearGradient>
<linearGradient id="paint1_linear_782_1398" x1="65.3645" y1="34.5237" x2="65.3645" y2="116.931" gradientUnits="userSpaceOnUse">
<stop stop-color="#024EC9"/>
<stop offset="1" stop-color="#0061FF"/>
</linearGradient>
<linearGradient id="paint2_linear_782_1398" x1="188" y1="61" x2="721" y2="61" gradientUnits="userSpaceOnUse">
<stop stop-color="#024EC9"/>
<stop offset="1" stop-color="#0061FF"/>
</linearGradient>
</defs>
</svg>
